src/assets/duotone/SearchZoomIn1.svg

<svg width="24" height="24" viewBox="0 0 24 24"  xmlns="http://www.w3.org/2000/svg">
<path opacity="0.4" d="M11.5 21C16.7467 21 21 16.7467 21 11.5C21 6.25329 16.7467 2 11.5 2C6.25329 2 2 6.25329 2 11.5C2 16.7467 6.25329 21 11.5 21Z" />
<path d="M21.3001 22.0005C21.1201 22.0005 20.9401 21.9305 20.8101 21.8005L18.9501 19.9405C18.6801 19.6705 18.6801 19.2305 18.9501 18.9505C19.2201 18.6805 19.6601 18.6805 19.9401 18.9505L21.8001 20.8105C22.0701 21.0805 22.0701 21.5205 21.8001 21.8005C21.6601 21.9305 21.4801 22.0005 21.3001 22.0005Z" />
<path d="M14.2002 10.9492H12.4502V9.19922C12.4502 8.78922 12.1102 8.44922 11.7002 8.44922C11.2902 8.44922 10.9502 8.78922 10.9502 9.19922V10.9492H9.2002C8.7902 10.9492 8.4502 11.2892 8.4502 11.6992C8.4502 12.1092 8.7902 12.4492 9.2002 12.4492H10.9502V14.1992C10.9502 14.6092 11.2902 14.9492 11.7002 14.9492C12.1102 14.9492 12.4502 14.6092 12.4502 14.1992V12.4492H14.2002C14.6102 12.4492 14.9502 12.1092 14.9502 11.6992C14.9502 11.2892 14.6102 10.9492 14.2002 10.9492Z" />
</svg>

<?xml version="1.0" encoding="UTF-8"?>
<svg width="24" height="24" viewBox="0 0 24 24" xmlns="http://www.w3.org/2000/svg">
 <path d="m11.5 21c5.2467 0 9.5-4.2533 9.5-9.5 0-5.2467-4.2533-9.5-9.5-9.5-5.2467 0-9.5 4.2533-9.5 9.5 0 5.2467 4.2533 9.5 9.5 9.5z" opacity=".4"/>
 <path d="m21.3 22c-0.18 0-0.36-0.07-0.49-0.2l-1.86-1.86c-0.27-0.27-0.27-0.71 0-0.99 0.27-0.27 0.71-0.27 0.99 0l1.86 1.86c0.27 0.27 0.27 0.71 0 0.99-0.14 0.13-0.32 0.2-0.5 0.2z"/>
 <path d="m14.2 10.949h-1.75v-1.75c0-0.41-0.34-0.75-0.75-0.75s-0.75 0.34-0.75 0.75v1.75h-1.75c-0.41 0-0.75 0.34-0.75 0.75s0.34 0.75 0.75 0.75h1.75v1.75c0 0.41 0.34 0.75 0.75 0.75s0.75-0.34 0.75-0.75v-1.75h1.75c0.41 0 0.75-0.34 0.75-0.75s-0.34-0.75-0.75-0.75z"/>
</svg>
